X:2314
T:Bunker Hill
R:reel
D:Arty McGlynn: McGlynn's Fancy
D:Dermot Byrne
Z:id:hn-reel-241
M:C|
K:Dmix
cA|:GEcE D2~D2|(3EFG AB c2Bc|~A3G EFGE|ABcA d2cA|
GEcE D2~D2|(3EFG AB c2Bc|dBcA BGFG|ABcA d2cA:|
|:Gc~c2 ec~c2|Gc~c2 cAGc|Ad~d2 fd~d2|Adde dcAG|
(3EFG AB cAdB|cAdB c2Bc|dBcA BGFG|1 ABcA d2cA:|2 ABcA d2ag||
|:fd~d2 fdad|fadf a2gf|ge~e2 gebe|gbeg b2ag|
fddc dcAB|cAdB c2Bc|dBcA BGFG|1 ABcA d2ag:|2 ABcA d2||
"Variations:"
cA|:GE~E2 D2ED|FGAB c2dc|ABAG EFGE|ABcA d2ed|
cAGE D2~D2|FGAB c2Bc|dBcA BG~G2|ABcA d2cA:|
|:GcBc ecBc|GccB cBAG|Ad~d2 fd~d2|Addc dcAG|
FGAB cAdB|(3cBA dB c2Bc|dBcA BG~G2|1 ABcA d2cA:|2 ABcA d2ag||
|:fd~d2 fdad|fadf a2gf|ge~e2 gebe|gbeg b2ag|
fd~d2 dcAB|cAdB c2Bc|dBcA BG~G2|1 ABcA d2ag:|2 ABcA d2||


